src/pos-icons/arrow-top-left.svg

<svg height="24" viewBox="0 0 24 24" width="24" xmlns="http://www.w3.org/2000/svg"><path d="m19 17.59-1.41 1.41-10.59-10.59v6.59h-2v-10h10v2h-6.59z"/></svg>

<?xml version="1.0" encoding="UTF-8"?><!DOCTYPE svg PUBLIC "-//W3C//DTD SVG 1.1//EN" "http://www.w3.org/Graphics/SVG/1.1/DTD/svg11.dtd"><svg xmlns="http://www.w3.org/2000/svg" xmlns:xlink="http://www.w3.org/1999/xlink" version="1.1" id="mdi-arrow-top-left" width="24" height="24" viewBox="0 0 24 24"><path d="M19,17.59L17.59,19L7,8.41V15H5V5H15V7H8.41L19,17.59Z" /></svg>
